Numix/16/status/indicator-keyboard-Pt-8.svg

<?xml version="1.0" encoding="UTF-8" standalone="no"?>
<svg
   xmlns:dc="http://purl.org/dc/elements/1.1/"
   xmlns:cc="http://creativecommons.org/ns#"
   xmlns:rdf="http://www.w3.org/1999/02/22-rdf-syntax-ns#"
   xmlns:svg="http://www.w3.org/2000/svg"
   xmlns="http://www.w3.org/2000/svg"
   xmlns:sodipodi="http://sodipodi.sourceforge.net/DTD/sodipodi-0.dtd"
   xmlns:inkscape="http://www.inkscape.org/namespaces/inkscape"
   viewBox="0 0 16 16"
   id="svg2"
   version="1.1"
   inkscape:version="0.91 r13725"
   sodipodi:docname="indicator-keyboard-Pt-8.svg">
  <metadata
     id="metadata14">
    <rdf:RDF>
      <cc:Work
         rdf:about="">
        <dc:format>image/svg+xml</dc:format>
        <dc:type
           rdf:resource="http://purl.org/dc/dcmitype/StillImage" />
      </cc:Work>
    </rdf:RDF>
  </metadata>
  <defs
     id="defs12" />
  <sodipodi:namedview
     pagecolor="#ffffff"
     bordercolor="#666666"
     borderopacity="1"
     objecttolerance="10"
     gridtolerance="10"
     guidetolerance="10"
     inkscape:pageopacity="0"
     inkscape:pageshadow="2"
     inkscape:window-width="640"
     inkscape:window-height="480"
     id="namedview10"
     showgrid="false"
     inkscape:zoom="14.75"
     inkscape:cx="8"
     inkscape:cy="8"
     inkscape:window-x="65"
     inkscape:window-y="24"
     inkscape:window-maximized="0"
     inkscape:current-layer="svg2" />
  <path
     style="fill:#ececec;fill-opacity:1"
     d="M 1.5996094 0 C 0.71320937 2.9605947e-16 0 0.71320937 0 1.5996094 L 0 14.400391 C 2.9605947e-16 15.286791 0.71320937 16 1.5996094 16 L 14.400391 16 C 15.286791 16 16 15.286791 16 14.400391 L 16 1.5996094 C 16 0.71320937 15.286791 0 14.400391 0 L 1.5996094 0 z M 4.1191406 4.8046875 C 5.0011406 4.8046875 5.6597969 4.9725937 6.0917969 5.3085938 C 6.5237969 5.6445937 6.7382812 6.1222344 6.7382812 6.7402344 C 6.7382812 7.0942344 6.6767813 7.3964375 6.5507812 7.6484375 C 6.4247812 7.8944375 6.2437656 8.0959531 6.0097656 8.2519531 C 5.7757656 8.4019531 5.4884844 8.5139375 5.1464844 8.5859375 C 4.8104844 8.6519375 4.4299062 8.6835938 4.0039062 8.6835938 L 3.15625 8.6835938 L 3.15625 11.095703 L 2.5449219 11.095703 L 2.5449219 4.9765625 C 2.7609219 4.9165625 3.0127812 4.8736094 3.3007812 4.8496094 C 3.5947812 4.8196094 3.8671406 4.8046875 4.1191406 4.8046875 z M 8.3847656 4.9667969 L 8.3847656 6.4433594 L 10.238281 6.4433594 L 10.238281 6.9375 L 8.3847656 6.9375 L 8.3847656 9.4121094 C 8.3847656 9.6761094 8.4052656 9.8925467 8.4472656 10.060547 C 8.4952656 10.222547 8.5605313 10.349453 8.6445312 10.439453 C 8.7285312 10.529453 8.8311719 10.589141 8.9511719 10.619141 C 9.0711719 10.649141 9.2036563 10.664063 9.3476562 10.664062 C 9.5936562 10.664062 9.7914063 10.636031 9.9414062 10.582031 C 10.091407 10.522031 10.208969 10.469875 10.292969 10.421875 L 10.435547 10.90625 C 10.351547 10.96025 10.206094 11.023703 9.9960938 11.095703 C 9.7860937 11.161703 9.5565469 11.195312 9.3105469 11.195312 C 9.0225469 11.195312 8.7800313 11.159891 8.5820312 11.087891 C 8.3900313 11.009891 8.2332812 10.894141 8.1132812 10.744141 C 7.9992812 10.588141 7.9190937 10.397922 7.8710938 10.169922 C 7.8230937 9.9419217 7.7988281 9.671375 7.7988281 9.359375 L 7.7988281 5.0742188 L 8.3847656 4.9667969 z M 4.1464844 5.3359375 C 3.9184844 5.3359375 3.7245 5.3452812 3.5625 5.3632812 C 3.4065 5.3752813 3.27025 5.3864375 3.15625 5.3984375 L 3.15625 8.1523438 L 3.9316406 8.1523438 C 4.2616406 8.1523438 4.5582656 8.1356094 4.8222656 8.0996094 C 5.0922656 8.0576094 5.3198594 7.9848125 5.5058594 7.8828125 C 5.6978594 7.7748125 5.8452656 7.6274062 5.9472656 7.4414062 C 6.0492656 7.2554063 6.0996094 7.0184687 6.0996094 6.7304688 C 6.0996094 6.4544688 6.0436875 6.226875 5.9296875 6.046875 C 5.8216875 5.866875 5.6742813 5.7250469 5.4882812 5.6230469 C 5.3082813 5.5150469 5.1011875 5.4404375 4.8671875 5.3984375 C 4.6331875 5.3564375 4.3924844 5.3359375 4.1464844 5.3359375 z M 12.191406 8.7539062 C 12.394206 8.7539062 12.57055 8.7852563 12.71875 8.8476562 C 12.86695 8.9061562 12.986478 8.9845313 13.080078 9.0820312 C 13.177578 9.1795313 13.248116 9.2912156 13.291016 9.4160156 C 13.337816 9.5408156 13.361328 9.6681812 13.361328 9.8007812 C 13.361328 9.9294812 13.341734 10.049003 13.302734 10.158203 C 13.263734 10.263503 13.212791 10.361472 13.150391 10.451172 C 13.087991 10.536972 13.017453 10.613387 12.939453 10.679688 C 12.861453 10.745988 12.786991 10.800856 12.712891 10.847656 C 12.985891 10.964656 13.175956 11.111609 13.285156 11.287109 C 13.398256 11.462609 13.455078 11.64875 13.455078 11.84375 C 13.455078 12.01145 13.423728 12.164288 13.361328 12.304688 C 13.302828 12.445087 13.218575 12.566569 13.109375 12.667969 C 13.000175 12.765469 12.868891 12.841884 12.712891 12.896484 C 12.556891 12.954984 12.382506 12.984375 12.191406 12.984375 C 12.000306 12.984375 11.825922 12.956944 11.669922 12.902344 C 11.517822 12.847744 11.386538 12.771328 11.273438 12.673828 C 11.164238 12.572428 11.078025 12.454866 11.015625 12.322266 C 10.957125 12.185766 10.927734 12.038806 10.927734 11.878906 C 10.927734 11.742406 10.947328 11.618966 10.986328 11.509766 C 11.025328 11.396666 11.076272 11.296737 11.138672 11.210938 C 11.204972 11.121237 11.279428 11.042863 11.361328 10.976562 C 11.447128 10.906362 11.535306 10.845622 11.628906 10.794922 C 11.391006 10.677922 11.230331 10.540759 11.144531 10.380859 C 11.058731 10.220959 11.015625 10.046575 11.015625 9.859375 C 11.015625 9.691675 11.045016 9.5407968 11.103516 9.4042969 C 11.162016 9.2677969 11.24235 9.1521938 11.34375 9.0585938 C 11.44905 8.9610937 11.572497 8.8866375 11.716797 8.8359375 C 11.861097 8.7813375 12.019806 8.7539062 12.191406 8.7539062 z M 12.191406 9.0820312 C 12.062706 9.0820312 11.949063 9.101625 11.851562 9.140625 C 11.754063 9.179625 11.671769 9.2344875 11.605469 9.3046875 C 11.543069 9.3709875 11.496038 9.4493625 11.460938 9.5390625 C 11.429737 9.6287624 11.414062 9.7208594 11.414062 9.8183594 C 11.414062 9.9275594 11.425819 10.027487 11.449219 10.117188 C 11.476519 10.206888 11.52355 10.289181 11.59375 10.363281 C 11.66395 10.433481 11.761919 10.5001 11.886719 10.5625 C 12.011519 10.621 12.176106 10.677822 12.378906 10.732422 C 12.558306 10.631022 12.699387 10.505622 12.804688 10.357422 C 12.909987 10.209222 12.962891 10.023081 12.962891 9.8007812 C 12.962891 9.7110813 12.947216 9.6248624 12.916016 9.5390625 C 12.888716 9.4532625 12.84365 9.3768469 12.78125 9.3105469 C 12.72275 9.2403469 12.646328 9.1854844 12.548828 9.1464844 C 12.451328 9.1035844 12.331806 9.0820312 12.191406 9.0820312 z M 11.957031 10.929688 C 11.758131 11.023287 11.605294 11.150647 11.496094 11.310547 C 11.386894 11.466547 11.332031 11.656606 11.332031 11.878906 C 11.332031 11.988106 11.349666 12.088041 11.384766 12.181641 C 11.419866 12.275241 11.472769 12.357534 11.542969 12.427734 C 11.617069 12.497934 11.705247 12.554756 11.810547 12.597656 C 11.919747 12.636656 12.047106 12.65625 12.191406 12.65625 C 12.335706 12.65625 12.461106 12.636656 12.566406 12.597656 C 12.675606 12.554756 12.763784 12.497934 12.833984 12.427734 C 12.908084 12.357534 12.962947 12.275241 12.998047 12.181641 C 13.033147 12.088041 13.050781 11.988106 13.050781 11.878906 C 13.050781 11.711206 13.017472 11.57405 12.951172 11.46875 C 12.888772 11.36345 12.806472 11.277238 12.701172 11.210938 C 12.599772 11.144638 12.482209 11.091734 12.349609 11.052734 C 12.220909 11.013734 12.089631 10.972587 11.957031 10.929688 z "
     id="path4" />
</svg>

<svg xmlns="http://www.w3.org/2000/svg" viewBox="0 0 16 16">
 <path d="m 1.6 0 c -0.886 0 -1.6 0.713 -1.6 1.6 l 0 12.801 c 0 0.886 0.713 1.6 1.6 1.6 l 12.801 0 c 0.886 0 1.6 -0.713 1.6 -1.6 l 0 -12.801 c 0 -0.886 -0.713 -1.6 -1.6 -1.6 l -12.801 0 z m 2.52 4.805 c 0.882 0 1.541 0.168 1.973 0.504 c 0.432 0.336 0.646 0.814 0.646 1.432 c 0 0.354 -0.061 0.656 -0.188 0.908 c -0.126 0.246 -0.307 0.448 -0.541 0.604 c -0.234 0.15 -0.521 0.262 -0.863 0.334 c -0.336 0.066 -0.717 0.098 -1.143 0.098 l -0.848 0 l 0 2.412 l -0.611 0 l 0 -6.119 c 0.216 -0.06 0.468 -0.103 0.756 -0.127 c 0.294 -0.03 0.566 -0.045 0.818 -0.045 z m 4.266 0.162 l 0 1.477 l 1.854 0 l 0 0.494 l -1.854 0 l 0 2.475 c 0 0.264 0.021 0.48 0.063 0.648 c 0.048 0.162 0.113 0.289 0.197 0.379 c 0.084 0.09 0.187 0.15 0.307 0.18 c 0.12 0.03 0.252 0.045 0.396 0.045 c 0.246 0 0.444 -0.028 0.594 -0.082 c 0.15 -0.06 0.268 -0.112 0.352 -0.16 l 0.143 0.484 c -0.084 0.054 -0.229 0.117 -0.439 0.189 c -0.21 0.066 -0.44 0.1 -0.686 0.1 c -0.288 0 -0.531 -0.035 -0.729 -0.107 c -0.192 -0.078 -0.349 -0.194 -0.469 -0.344 c -0.114 -0.156 -0.194 -0.346 -0.242 -0.574 c -0.048 -0.228 -0.072 -0.499 -0.072 -0.811 l 0 -4.285 l 0.586 -0.107 z m -4.238 0.369 c -0.228 0 -0.422 0.009 -0.584 0.027 c -0.156 0.012 -0.292 0.023 -0.406 0.035 l 0 2.754 l 0.775 0 c 0.33 0 0.627 -0.017 0.891 -0.053 c 0.27 -0.042 0.498 -0.115 0.684 -0.217 c 0.192 -0.108 0.339 -0.255 0.441 -0.441 c 0.102 -0.186 0.152 -0.423 0.152 -0.711 c 0 -0.276 -0.056 -0.504 -0.17 -0.684 c -0.108 -0.18 -0.255 -0.322 -0.441 -0.424 c -0.18 -0.108 -0.387 -0.183 -0.621 -0.225 c -0.234 -0.042 -0.475 -0.063 -0.721 -0.063 z m 8.04 3.418 c 0.203 0 0.379 0.031 0.527 0.094 c 0.148 0.059 0.268 0.137 0.361 0.234 c 0.098 0.098 0.168 0.209 0.211 0.334 c 0.047 0.125 0.07 0.252 0.07 0.385 c 0 0.129 -0.02 0.248 -0.059 0.357 c -0.039 0.105 -0.09 0.203 -0.152 0.293 c -0.062 0.086 -0.133 0.162 -0.211 0.229 c -0.078 0.066 -0.152 0.121 -0.227 0.168 c 0.273 0.117 0.463 0.264 0.572 0.439 c 0.113 0.176 0.17 0.362 0.17 0.557 c 0 0.168 -0.031 0.321 -0.094 0.461 c -0.059 0.14 -0.143 0.262 -0.252 0.363 c -0.109 0.098 -0.24 0.174 -0.396 0.229 c -0.156 0.059 -0.33 0.088 -0.521 0.088 c -0.191 0 -0.365 -0.027 -0.521 -0.082 c -0.152 -0.055 -0.283 -0.131 -0.396 -0.229 c -0.109 -0.101 -0.195 -0.219 -0.258 -0.352 c -0.059 -0.137 -0.088 -0.283 -0.088 -0.443 c 0 -0.136 0.02 -0.26 0.059 -0.369 c 0.039 -0.113 0.09 -0.213 0.152 -0.299 c 0.066 -0.09 0.141 -0.168 0.223 -0.234 c 0.086 -0.07 0.174 -0.131 0.268 -0.182 c -0.238 -0.117 -0.399 -0.254 -0.484 -0.414 c -0.086 -0.16 -0.129 -0.334 -0.129 -0.521 c 0 -0.168 0.029 -0.319 0.088 -0.455 c 0.058 -0.136 0.139 -0.252 0.24 -0.346 c 0.105 -0.098 0.229 -0.172 0.373 -0.223 c 0.144 -0.055 0.303 -0.082 0.475 -0.082 z m 0 0.328 c -0.129 0 -0.242 0.02 -0.34 0.059 c -0.097 0.039 -0.18 0.094 -0.246 0.164 c -0.062 0.066 -0.109 0.145 -0.145 0.234 c -0.031 0.09 -0.047 0.182 -0.047 0.279 c 0 0.109 0.012 0.209 0.035 0.299 c 0.027 0.09 0.074 0.172 0.145 0.246 c 0.07 0.07 0.168 0.137 0.293 0.199 c 0.125 0.059 0.289 0.115 0.492 0.17 c 0.179 -0.101 0.32 -0.227 0.426 -0.375 c 0.105 -0.148 0.158 -0.334 0.158 -0.557 c 0 -0.09 -0.016 -0.176 -0.047 -0.262 c -0.027 -0.086 -0.072 -0.162 -0.135 -0.229 c -0.059 -0.07 -0.135 -0.125 -0.232 -0.164 c -0.098 -0.043 -0.217 -0.064 -0.357 -0.064 z m -0.234 1.848 c -0.199 0.094 -0.352 0.221 -0.461 0.381 c -0.109 0.156 -0.164 0.346 -0.164 0.568 c 0 0.109 0.018 0.209 0.053 0.303 c 0.035 0.094 0.088 0.176 0.158 0.246 c 0.074 0.07 0.162 0.127 0.268 0.17 c 0.109 0.039 0.237 0.059 0.381 0.059 c 0.144 0 0.27 -0.02 0.375 -0.059 c 0.109 -0.043 0.197 -0.1 0.268 -0.17 c 0.074 -0.07 0.129 -0.152 0.164 -0.246 c 0.035 -0.094 0.053 -0.194 0.053 -0.303 c 0 -0.168 -0.033 -0.305 -0.1 -0.41 c -0.062 -0.105 -0.145 -0.192 -0.25 -0.258 c -0.101 -0.066 -0.219 -0.119 -0.352 -0.158 c -0.129 -0.039 -0.26 -0.08 -0.393 -0.123 z" style="fill:#ececec;fill-opacity:1"/>
</svg>
